X:1
T:New Calabar, 77.77
T:New Calabar, 77.77
T:John Downing Farrer (1829-1919)
T:Public Domain Courtesy of the Cyber Hymnal™
C:John Downing Farrer (1829-1919)
Z:Public Domain
Z:Courtesy of the Cyber Hymnal™
%%score ( 1 2 ) ( 3 4 )
L:1/8
Q:1/4=110
M:4/4
K:G
V:1 treble 
V:2 treble 
V:3 bass 
V:4 bass 
V:1
 [GB]3 [FA] G2 [DF]2 | [DF]2 [CE]2 [B,D]4 | [DG]2 (AB) [Gc]2 [FB]2 | [EA]2 [EG]2 [FA]4 | %4
 d3 [Fc] [GB]2 G2 | A2 z [Ac]4 x | [FA]2 ([GB][Ac]) [Gd]2 [GB]2 | [GA]2 [FA]2 G4 |] %8
V:2
 x4 G2 x2 | x8 | x2 D2 x4 | x8 | (D2 E) x G2 x2 | (EA) (B2 ^G) x3 | x8 | x4 G4 |] %8
V:3
 [G,D]3 [G,C] [G,B,]2 (B,A,) | G,2 ([E,G,][F,A,]) [G,B,]4 | [G,B,]2 [F,A,]2 (G,A,) [D,B,]2 | %3
 [C,C]2 [E,B,]2 [D,D]4 | B,3 [A,C] D2 ([E,G,][D,B,]) | [C,E]2 [B,,D]2 [A,,C]4 | %6
 [D,D]2 [C,D]2 [B,,G,]2 B,2 | [C,E]2 (DC) [G,,B,]4 |] %8
V:4
 x6 B,,2 | (C,D,) x6 | x4 E,2 x2 | x8 | B,3 (G, F,) x3 | x8 | x6 (E,D,) | x2 D,2 x4 |] %8

